src/images/logos/orgs/ukeu.svg

<svg xmlns="http://www.w3.org/2000/svg" xmlns:xlink="http://www.w3.org/1999/xlink" width="172" height="76" viewBox="0 0 172 76">
  <defs>
    <polygon id="logo-middle-blue-a" points="0 75.866 171.216 75.866 171.216 0 0 0"/>
  </defs>
  <g fill="none" fill-rule="evenodd">
    <path fill="#0047C7" d="M20.438,46.2669 C17.914,48.3109 14.914,49.2389 11.879,49.2389 C4.184,49.2389 0,43.6479 0,38.0289 C0,32.3449 4.055,26.6279 12.263,26.6279 C15.073,26.6279 17.532,27.4279 19.416,28.3539 L19.416,32.2179 C17.787,31.3229 14.658,30.1739 12.199,30.1739 C6.802,30.1739 4.184,33.9109 4.184,37.8679 C4.184,43.0739 7.952,45.6919 12.072,45.6919 C14.339,45.6919 16.671,44.9279 18.585,43.3939 L20.438,46.2669 Z"/>
    <polygon fill="#0047C7" points="42.07 48.854 38.046 48.854 38.046 39.722 27.796 39.722 27.796 48.854 23.772 48.854 23.772 26.947 27.796 26.947 27.796 36.178 38.046 36.178 38.046 26.947 42.07 26.947"/>
    <polyline fill="#FB471F" points="27.795 36.178 38.045 36.178 38.045 39.722 27.795 39.722"/>
    <polygon fill="#0047C7" points="88.526 48.854 85.173 48.854 72.751 33.398 72.655 33.398 72.846 38.796 72.846 48.854 68.855 48.854 68.855 26.947 72.24 26.947 84.631 42.403 84.725 42.403 84.534 37.007 84.534 26.947 88.526 26.947"/>
    <polygon fill="#FB471F" points="85.173 48.854 72.752 33.398 72.655 33.398 72.24 26.947 84.631 42.403 84.725 42.403"/>
    <polygon fill="#0047C7" points="27.116 53.574 27.116 75.481 40.688 75.481 40.688 71.936 31.14 71.936 31.14 66.35 38.454 66.35 38.454 62.804 31.14 62.804 31.14 57.12 40.114 57.12 40.114 53.574"/>
    <path fill="#0047C7" d="M61.3906 67.9763C61.3906 72.9893 57.0796 75.8653 52.6406 75.8653 48.2026 75.8653 43.8906 72.9893 43.8906 67.9763L43.8906 53.5733 47.9146 53.5733 47.9146 66.9543C47.9146 70.3393 49.6716 72.3183 52.6406 72.3183 55.5466 72.3183 57.3666 70.3713 57.3666 66.9543L57.3666 53.5733 61.3906 53.5733 61.3906 67.9763zM73.9223 57.1199L70.4093 57.1199 70.4093 62.9939 73.9223 62.9939C76.2843 62.9939 77.2753 61.4939 77.2753 60.0249 77.2753 58.4929 76.3173 57.1199 73.9223 57.1199L73.9223 57.1199zM83.6613 75.4809L78.5523 75.4809 73.1873 66.5379 70.4093 66.5379 70.4093 75.4809 66.3853 75.4809 66.3853 53.5729 74.5923 53.5729C79.1263 53.5729 81.2343 56.9279 81.2343 59.9939 81.2343 62.2919 79.7983 65.0069 77.2753 65.9969L80.9153 72.1289C81.5213 73.1169 82.2563 73.3099 82.8963 73.3099L83.6613 73.3099 83.6613 75.4809zM89.3569 64.5906C89.3569 69.9576 93.2209 72.3186 96.8289 72.3186 100.4379 72.3186 104.3019 69.9576 104.3019 64.5906 104.3019 59.2256 100.4049 56.8006 96.8289 56.8006 93.2519 56.8006 89.3569 59.2256 89.3569 64.5906M108.4859 64.5596C108.4859 70.2126 104.4619 75.8656 96.8289 75.8656 89.1969 75.8656 85.1729 70.2126 85.1729 64.5596 85.1729 58.9066 89.1969 53.2536 96.8289 53.2536 104.4619 53.2536 108.4859 58.9066 108.4859 64.5596M120.2846 57.1199L116.7716 57.1199 116.7716 63.1859 120.2846 63.1859C122.6476 63.1859 123.6376 61.6209 123.6376 60.1519 123.6376 58.6199 122.6796 57.1199 120.2846 57.1199M120.6996 66.7309L116.7716 66.7309 116.7716 75.4809 112.7486 75.4809 112.7486 53.5729 120.9546 53.5729C125.4896 53.5729 127.5966 56.9899 127.5966 60.0549 127.5966 63.3139 125.2976 66.7309 120.6996 66.7309"/>
    <polygon fill="#0047C7" points="131.248 53.574 131.248 75.481 144.82 75.481 144.82 71.936 135.27 71.936 135.27 66.35 142.585 66.35 142.585 62.804 135.27 62.804 135.27 57.12 144.245 57.12 144.245 53.574"/>
    <path fill="#0047C7" d="M50.4409,14.7229 C50.4409,19.7359 46.1299,22.6119 41.6909,22.6119 C37.2529,22.6119 32.9409,19.7359 32.9409,14.7229 L32.9409,0.3199 L36.9649,0.3199 L36.9649,13.7009 C36.9649,17.0859 38.7219,19.0649 41.6909,19.0649 C44.5969,19.0649 46.4169,17.1179 46.4169,13.7009 L46.4169,0.3199 L50.4409,0.3199 L50.4409,14.7229 Z"/>
    <mask id="logo-middle-blue-b" fill="#fff">
      <use xlink:href="#logo-middle-blue-a"/>
    </mask>
    <polygon fill="#0047C7" points="82.339 22.228 86.363 22.228 86.363 .321 82.339 .321" mask="url(#logo-middle-blue-b)"/>
    <polygon fill="#0047C7" points="107.028 .32 107.028 10.381 107.218 15.776 107.124 15.776 94.735 .32 91.349 .32 91.349 22.227 95.34 22.227 95.34 12.169 95.149 6.772 95.244 6.772 107.666 22.227 111.019 22.227 111.019 .32" mask="url(#logo-middle-blue-b)"/>
    <path fill="#0047C7" d="M128.5669 9.262L129.8129 5.591 129.8769 5.591 131.1219 9.262 133.0389 14.149 126.6529 14.149 128.5669 9.262zM128.0879.32L119.4649 22.228 123.4899 22.228 125.3099 17.63 134.3789 17.63 136.2009 22.228 140.2249 22.228 131.6019.32 128.0879.32zM104.6665 49.2386C96.9715 49.2386 92.7875 43.6476 92.7875 37.9976 92.7875 32.3446 96.8425 26.6266 105.0505 26.6266 107.8595 26.6266 110.3195 27.4276 112.2035 28.3536L112.2035 32.2166C110.5735 31.3226 107.4445 30.1736 104.9865 30.1736 99.5895 30.1736 96.9715 33.9106 96.9715 37.8676 96.9715 42.0206 99.6855 45.6916 104.9225 45.6916 106.3595 45.6916 107.9885 45.3416 109.4265 44.6076L109.4265 41.1906 104.2835 41.1906 104.2835 37.6466 113.4165 37.6466 113.4165 46.1086C110.7015 48.5026 106.9345 49.2386 104.6665 49.2386M162.4663 49.2386C154.7713 49.2386 150.5873 43.6476 150.5873 37.9976 150.5873 32.3446 154.6423 26.6266 162.8493 26.6266 165.6593 26.6266 168.1193 27.4276 170.0033 28.3536L170.0033 32.2166C168.3733 31.3226 165.2443 30.1736 162.7863 30.1736 157.3893 30.1736 154.7713 33.9106 154.7713 37.8676 154.7713 42.0206 157.4853 45.6916 162.7223 45.6916 164.1593 45.6916 165.7883 45.3416 167.2253 44.6076L167.2253 41.1906 162.0823 41.1906 162.0823 37.6466 171.2163 37.6466 171.2163 46.1086C168.5033 48.5026 164.7343 49.2386 162.4663 49.2386" mask="url(#logo-middle-blue-b)"/>
    <polygon fill="#FB471F" points="117.644 48.855 121.667 48.855 121.667 26.948 117.644 26.948" mask="url(#logo-middle-blue-b)"/>
    <polygon fill="#0047C7" points="146.327 48.854 142.974 48.854 130.552 33.398 130.456 33.398 130.647 38.796 130.647 48.854 126.656 48.854 126.656 26.947 130.041 26.947 142.432 42.403 142.527 42.403 142.335 37.007 142.335 26.947 146.327 26.947" mask="url(#logo-middle-blue-b)"/>
    <path fill="#0047C7" d="M58.6567 40.7747L56.7397 35.8887 55.4947 32.2177 55.4307 32.2177 54.1847 35.8887 52.2707 40.7747 58.6567 40.7747zM65.8427 48.8537L61.8187 48.8537 59.9987 44.2567 50.9287 44.2567 49.1087 48.8537 45.0847 48.8537 53.7077 26.9467 57.2197 26.9467 65.8427 48.8537zM73.6206 20.0559L72.8556 20.0559C72.3176 20.0559 71.6116 19.9619 71.0396 19.3419L64.3446 10.2189 71.9446 2.4289 69.5496-.0001 59.4586 10.4119 59.4586.3199 55.4346.3199 55.4346 22.2269 59.4586 22.2269 59.4586 15.2349 61.6226 13.0059 68.5106 22.2269 68.5286 22.2269 73.1576 22.2269 73.6206 22.2269 73.6206 20.0559z" mask="url(#logo-middle-blue-b)"/>
  </g>
</svg>

<svg height="76" viewBox="0 0 172 76" width="172" xmlns="http://www.w3.org/2000/svg" xmlns:xlink="http://www.w3.org/1999/xlink"><mask id="a" fill="#fff"><path d="m0 75.866h171.216v-75.866h-171.216z" fill="#fff" fill-rule="evenodd"/></mask><g fill="none" fill-rule="evenodd"><path d="m20.438 46.2669c-2.524 2.044-5.524 2.972-8.559 2.972-7.695 0-11.879-5.591-11.879-11.21 0-5.684 4.055-11.401 12.263-11.401 2.81 0 5.269.8 7.153 1.726v3.864c-1.629-.895-4.758-2.044-7.217-2.044-5.397 0-8.015 3.737-8.015 7.694 0 5.206 3.768 7.824 7.888 7.824 2.267 0 4.599-.764 6.513-2.298z" fill="#0047c7"/><path d="m42.07 48.854h-4.024v-9.132h-10.25v9.132h-4.024v-21.907h4.024v9.231h10.25v-9.231h4.024z" fill="#0047c7"/><path d="m27.795 36.178h10.25v3.544h-10.25" fill="#fb471f"/><path d="m88.526 48.854h-3.353l-12.422-15.456h-.096l.191 5.398v10.058h-3.991v-21.907h3.385l12.391 15.456h.094l-.191-5.396v-10.06h3.992z" fill="#0047c7"/><path d="m85.173 48.854-12.421-15.456h-.097l-.415-6.451 12.391 15.456h.094z" fill="#fb471f"/><g fill="#0047c7"><path d="m27.116 53.574v21.907h13.572v-3.545h-9.548v-5.586h7.314v-3.546h-7.314v-5.684h8.974v-3.546z"/><path d="m61.3906 67.9763c0 5.013-4.311 7.889-8.75 7.889-4.438 0-8.75-2.876-8.75-7.889v-14.403h4.024v13.381c0 3.385 1.757 5.364 4.726 5.364 2.906 0 4.726-1.947 4.726-5.364v-13.381h4.024zm12.5317-10.8564h-3.513v5.874h3.513c2.362 0 3.353-1.5 3.353-2.969 0-1.532-.958-2.905-3.353-2.905zm9.739 18.361h-5.109l-5.365-8.943h-2.778v8.943h-4.024v-21.908h8.207c4.534 0 6.642 3.355 6.642 6.421 0 2.298-1.436 5.013-3.959 6.003l3.64 6.132c.606.988 1.341 1.181 1.981 1.181h.765zm5.6956-10.8903c0 5.367 3.864 7.728 7.472 7.728 3.609 0 7.473-2.361 7.473-7.728 0-5.365-3.897-7.79-7.473-7.79-3.577 0-7.472 2.425-7.472 7.79m19.129-.031c0 5.653-4.024 11.306-11.657 11.306-7.632 0-11.656-5.653-11.656-11.306s4.024-11.306 11.656-11.306c7.633 0 11.657 5.653 11.657 11.306m11.7987-7.4397h-3.513v6.066h3.513c2.363 0 3.353-1.565 3.353-3.034 0-1.532-.958-3.032-3.353-3.032m.415 9.611h-3.928v8.75h-4.023v-21.908h8.206c4.535 0 6.642 3.417 6.642 6.482 0 3.259-2.299 6.676-6.897 6.676"/><path d="m131.248 53.574v21.907h13.572v-3.545h-9.55v-5.586h7.315v-3.546h-7.315v-5.684h8.975v-3.546z"/><path d="m50.4409 14.7229c0 5.013-4.311 7.889-8.75 7.889-4.438 0-8.75-2.876-8.75-7.889v-14.403h4.024v13.381c0 3.385 1.757 5.364 4.726 5.364 2.906 0 4.726-1.947 4.726-5.364v-13.381h4.024z"/><path d="m82.339 22.228h4.024v-21.907h-4.024z" mask="url(#a)"/><path d="m107.028.32v10.061l.19 5.395h-.094l-12.389-15.456h-3.386v21.907h3.991v-10.058l-.191-5.397h.095l12.422 15.455h3.353v-21.907z" mask="url(#a)"/><path d="m128.5669 9.262 1.246-3.671h.064l1.245 3.671 1.917 4.887h-6.386zm-.479-8.942-8.623 21.908h4.025l1.82-4.598h9.069l1.822 4.598h4.024l-8.623-21.908zm-23.4214 48.9186c-7.695 0-11.879-5.591-11.879-11.241 0-5.653 4.055-11.371 12.263-11.371 2.809 0 5.269.801 7.153 1.727v3.863c-1.63-.894-4.759-2.043-7.217-2.043-5.397 0-8.015 3.737-8.015 7.694 0 4.153 2.714 7.824 7.951 7.824 1.437 0 3.066-.35 4.504-1.084v-3.417h-5.143v-3.544h9.133v8.462c-2.715 2.394-6.482 3.13-8.75 3.13m57.7998 0c-7.695 0-11.879-5.591-11.879-11.241 0-5.653 4.055-11.371 12.262-11.371 2.81 0 5.27.801 7.154 1.727v3.863c-1.63-.894-4.759-2.043-7.217-2.043-5.397 0-8.015 3.737-8.015 7.694 0 4.153 2.714 7.824 7.951 7.824 1.437 0 3.066-.35 4.503-1.084v-3.417h-5.143v-3.544h9.134v8.462c-2.713 2.394-6.482 3.13-8.75 3.13" mask="url(#a)"/></g><path d="m117.644 48.855h4.023v-21.907h-4.023z" fill="#fb471f" mask="url(#a)"/><path d="m146.327 48.854h-3.353l-12.422-15.456h-.096l.191 5.398v10.058h-3.991v-21.907h3.385l12.391 15.456h.095l-.192-5.396v-10.06h3.992z" fill="#0047c7" mask="url(#a)"/><path d="m58.6567 40.7747-1.917-4.886-1.245-3.671h-.064l-1.246 3.671-1.914 4.886zm7.186 8.079h-4.024l-1.82-4.597h-9.07l-1.82 4.597h-4.024l8.623-21.907h3.512zm7.7779-28.7978h-.765c-.538 0-1.244-.094-1.816-.714l-6.695-9.123 7.6-7.79-2.395-2.429-10.091 10.412v-10.092h-4.024v21.907h4.024v-6.992l2.164-2.229 6.888 9.221h.018 4.629.463z" fill="#0047c7" mask="url(#a)"/></g></svg>
